X:1
T:Title
%%score 1 2 3
L:1/8
M:3/2
K:C
V:1 treble nm="Part_1"
V:2 treble-8 nm="Part_2"
V:3 treble-8 nm="Part_3"
V:1
 z12 | C4 C4 E4 | G4 G4 G2 A2 | B4 c2 d4 c2 | A2 G4 c2 B B2 A | c4 z4 A4 | G4 F8 | E4 C4 z4 | %8
 c4 c4 A4 | B4 (3:2:4c4 B2 A4 G2 | G6 F2 F2 E2 | G12 | z12 | C4 C4 C4 | E6 F2 G4- | G2 E2 C4 z4 | %16
 D4 E4 F4 | _B6 A2 A2 B2 | c6 _B2 G2 FG | !fermata!A12 | z4 z4 F4 | E4 A8 | G4 F6 D2 | E4 C4 z4 | %24
 c6 _B2 G4- | G2 A2 _B6 G2 | A2 _B3 G G2 E2 F2 | G4 z4 z4 | G4 G4 A2 G2 | E8 F2 E2 | C4 C2 E4 F2 | %31
 G4 z4 A4 | B6 G2 A2 G2- | G2 c2 B2 c2 d2 cd | e2 d3 c c2 B B2 A | c12 |] %36
V:2
[K:F] c4 c4 e4 | g8 g4 | z4 e4 c4 | G4 A2 B4 A2 | c4 e2 f2 d4 | c12 | z4 a8 | g8 e4 | f2 e2 c8 | %9
 d4 c8 | B4 A8 | G8 z4 | c4 c4 c4 | e6 f2 g4- | g2 e2 c4 z4 | G4 A8 | _B4 c4 d4- | d8 c4 | A4 B8 | %19
 !fermata!A12 | A12 | z4 z4 f4 | e4 a8 | g4 e4 c4 | z4 c6 B2 | G6 A2 B4 | c2 B2 G4 A4 | G12 | z12 | %29
 g4 g4 a2 g2 | e8 c4- | c4 B4 c4 | G8 c4 | e2 f2 g2 e2 (3:2:2f4 e2 | c2 G2 B2 e2 d4 | c12 |] %36
V:3
[K:F] z12 | z12 | c4 c4 e4 | g4 f2 g4 f2 | e4 c2 F2 f4 | g4 a2 g2 e4- | e4 d8 | z2 c2 e2 f2 g4 | %8
 a4 g4 e4 | f4 e6 d2 | d4 c4 z4 | d4 d4 d4 | e6 f2 g4- | g2 e2 g6 e2 | c4 z4 e4 | d2 g4 f2 f2 c2 | %16
 G4 g4 z4 | G8 G4 | e2 f2 g2 f2 (3:2:2d4 c2 | !fermata!e4 z4 f4 | e4 a6 g2 | g4 f4 d4 | z4 d6 A2 | %23
 c4 g4 e4 | c4 z4 e4- | e2 d2 d2 c2 G4 | F2 G2 B2 d4 c2 | d8 z4 | G4 c4 A4 | c8 z4 | g4 g4 a2 g2 | %31
 e4 z2 d2 e2 f2 | g2 e2 d4 e4 | c2 A2 G4 B4 | c2 d2 e2 c2 G4 | g12 |] %36

